X:4775
T:Elaine Jeffries's
R:Reel
S:Gary Shannon
H:
N:
D:Lose The Head
Z:Adrian Scahill
M:2/2
L:1/8
K:F
AFFA F2 fc|AFFG AGG2|AFF2 AFAc|dedc AGG2:||\
Accd cAFG|A3F GAFG|Accd cAFG|AGG^F G3B|\
Accd cAFG|A3F GAFG|A3G Acde|dcAF G3B||
